X: 40667
T: Top Of The Stairs, The
R: reel
M: 4/4
K: Gmajor
|d2 dB c2 BA|GB B2 AGEF|GEED EGce|dBGB A2 Bc|
dgdB c2 BA|GB B2 AGEF|GEED EGce|1 dBAB GABc:|2 dBAB G4||
G,2 G,B, D2 GE|=F2 CF A,FCA,|G,2 G,B, D2 GD|FGAc BG G2|
edce dBGB|cA=FA c2 dc|BGGF GEDE|1 =FDCF DG G2:|2 =FDCF DGG^F||
Ge e2 ge e2|=fe e2 c2 ec|d2 (3ddd dege|dBAB G2 Bd|
egec dedB|(3cBA BG AGEF|GEED EGce|1 dBAB G2 GF:|2 dBAB G4||

